icons/gdb.svg

<!--
  - The MIT License (MIT)
  -
  - Copyright (c) 2015-2024 Elior "Mallowigi" Boukhobza
  -
  - Permission is hereby granted, free of charge, to any person obtaining a copy
  - of this software and associated documentation files (the "Software"), to deal
  - in the Software without restriction, including without limitation the rights
  - to use, copy, modify, merge, publish, distribute, sublicense, and/or sell
  - copies of the Software, and to permit persons to whom the Software is
  - furnished to do so, subject to the following conditions:
  -
  - The above copyright notice and this permission notice shall be included in all
  - copies or substantial portions of the Software.
  -
  - THE SOFTWARE IS PROVIDED "AS IS", WITHOUT WARRANTY OF ANY KIND, EXPRESS OR
  - IMPLIED, INCLUDING BUT NOT LIMITED TO THE WARRANTIES OF MERCHANTABILITY,
  - FITNESS FOR A PARTICULAR PURPOSE AND NONINFRINGEMENT. IN NO EVENT SHALL THE
  - AUTHORS OR COPYRIGHT HOLDERS BE LIABLE FOR ANY CLAIM, DAMAGES OR OTHER
  - LIABILITY, WHETHER IN AN ACTION OF CONTRACT, TORT OR OTHERWISE, ARISING FROM,
  - OUT OF OR IN CONNECTION WITH THE SOFTWARE OR THE USE OR OTHER DEALINGS IN THE
  - SOFTWARE.
  -
  -->

<svg  version="1.1" xmlns="http://www.w3.org/2000/svg" viewBox="0 0 512 512" width="16px" height="16px">
  <path fill="#AED581" data-iconColor="GDB"
        d="M94.3808517,193.5726776c-3.7467117,0.5310669-5.0057373-5.0558319-0.8768997-5.9220276c16.5085831-1.7929688,24.2908096,4.7171631,24.7047119,13.4341583c0.1921921,3.6389771-5.4465714,4.5856323-5.9769745,0.3320618C112.1451645,193.5276642,101.3323593,192.7045441,94.3808517,193.5726776z M108.6930923,338.8878479L68.848938,302.0871277c-2.4956589-2.1183472-5.4906883,1.375824-3.2492218,3.5169678l39.8441544,36.8007202C107.799324,344.4700928,110.9250107,341.2727051,108.6930923,338.8878479z M215.1842499,318.5168152l-31.8468018-18.1986694c9.6142273-8.3504639,12.7205048-15.5392761,0.3291321-29.6229858l34.2255402-22.5112762c2.5669556,9.1980133,6.2859192,18.4357758,10.0574951,25.3126984C232.3163147,298.5929565,226.6710968,314.0773315,215.1842499,318.5168152z M203.7260437,299.2950745l-9.1567841-4.709198c-0.8421936,1.6111145-1.9486237,3.1890869-3.3233185,4.736084l24.107254,13.7755737c13.0991821-7.5787659,8.6369171-34.6598816,8.0347748-37.9745789c-4.0536346-7.6115417-6.8503723-15.2861938-8.2236023-19.4129028l-24.4609375,16.0888367c0.6416779,0.8647156,1.2110901,1.7174988,1.7474518,2.5648804l17.1960144-9.5239868c2.7310028-1.4079895,5.0833435,2.4848022,2.3208618,4.1904297l-17.2508087,9.5543213c0.6706085,1.5319214,1.1679688,3.0372009,1.4702759,4.5135498h14.3207855c3.092926,0,3.092926,4.7890625,0,4.7890625H196.517746c-0.0531311,0.7257996-0.1604767,1.4441833-0.3100586,2.1568909l9.7082672,4.9927979C208.8054352,296.6693115,206.4069824,300.6452637,203.7260437,299.2950745z M167.8741302,357.7307434c-2.4584198,1.6788025-0.2759399,5.6317749,2.6564331,3.9846497c8.4504242-5.6332092,4.2757874-14.4455261,2.0332489-19.1807861c-1.023819-2.0305481,0.7607269-4.1143494,5.1214752-6.2470703c2.7836609,3.1916504,3.8918457,5.9305115,1.8247681,8.8964844c-1.7122345,2.6112061,1.9567108,5.2911072,3.9285278,2.7382812c7.8134155-11.5458984-10.9242554-20.9368896-11.246582-24.5860291c-0.0224152-3.214325-4.5263672-3.4316711-4.7820435-0.263092c-0.4246368,3.1654053,3.694809,6.7698975,6.7541962,9.6219177C157.9779816,342.1631775,177.8825226,350.2447205,167.8741302,357.7307434z M235.4798737,262.9135132c8.9052582,12.8220825,10.29953,25.7687073,4.2623444,39.5793457c-1.1452484,2.812439,2.9195404,4.8514099,4.3880157,1.9174805c6.6650543-15.2452393,5.0778656-30.1268921-4.7171478-44.229248C237.375412,257.5953369,233.7598877,260.3847351,235.4798737,262.9135132z M261.4754028,340.8532715c3.9437256-4.9948425,1.6310425-10.5941467-0.2379456-13.6481018c8.0363464-5.7945862,5.8088684-14.2761536-0.2262268-21.2351074c-2.4307861-2.2325134-5.5303497,1.1130676-3.4328003,3.3392639c9.005188,10.8897095,1.0891418,14.0776367-3.5619812,16.4740906c4.3268433,4.4544983,6.0738831,8.9230042,3.6999512,12.102417C255.8518066,340.4916992,259.3657227,343.2342834,261.4754028,340.8532715z M268.5099182,331.7112732c5.9580078-4.5120544,5.9031982-7.6091919,3.0299988-16.7675476c-0.7589111-3.2073364-5.2046814-2.2023315-4.7236023,0.7880249c1.1230164,6.3148804,4.1161804,8.2230225-1.1686096,12.1398621C263.262085,329.6860352,265.6817932,333.4394531,268.5099182,331.7112732z M297.8768311,246.952713c8.1130981-12.1942139-1.2156067-15.3370361-2.4915771-19.0855103c-0.5529175-3.2534943-5.0113525-2.5748138-4.7680359,0.439621c0.9057617,6.5015564,9.9850159,6.5015411,3.3310852,15.907608C292.2207947,246.6885681,295.8554382,249.5877686,297.8768311,246.952713z M294.3914185,269.5715637c5.8320007-6.2394714,6.3978882-13.0570984,1.6369019-19.7163086c-2.1144714-2.5776215-5.6499329,0.3580933-3.895813,2.7850494c3.4561768,4.8334808,3.0738525,9.0467377-1.2393494,13.6598053C288.8598633,268.5317688,291.9641724,271.8109741,294.3914185,269.5715637z M306.3009338,237.1629639c-2.3276672-2.4574127-5.5717773,0.6332703-3.7227478,3.0112915c3.3369141,4.1997681,3.9348145,7.4971924-0.2104492,10.7537537c-2.3601379,2.0061035,0.3572998,5.6638184,2.9955139,3.735611C311.5272827,249.7617188,311.3580933,243.3030396,306.3009338,237.1629639z M318.0584717,270.8342896c-0.0524902-2.5029297-3.4057922-2.4805298-3.5847778-0.2151184c0.1802979,6.0873413,6.415802,9.6709595-0.1274414,15.0675354c-1.7532349,1.4706421,0.2646179,4.2490845,2.244873,2.8037415c2.4891357-1.9913635,3.698761-3.9950867,4.154541-5.9099426c3.9889526,3.0430603,6.5144348,4.3712769,4.1888733,11.4859009c-0.6955261,2.2392578,2.629303,3.3670654,3.4164429,1.1107483C333.5270386,280.6037903,320.6564331,283.6967163,318.0584717,270.8342896z M315.2757568,291.1971741c-2.1404419-0.9376831-3.6647339,2.1535645-1.5106201,3.2573853c5.7314453,2.6365662,4.2348633,5.6297302-1.5480347,11.6043701c-1.6907959,1.6539001,0.7902527,4.1899414,2.5114746,2.5675659C321.4047241,302.4788208,324.3604736,295.4822998,315.2757568,291.1971741z M432.421875,246.5902557l-23.9453125,2.3945312c-2.2211914,0.1094666-2.0446472,3.6924896,0.1765442,3.5830231l24.1265259-2.4032898C435.1442261,249.9278564,434.786438,246.3536072,432.421875,246.5902557z M450.6427612,210.7518005l-27.237793,21.5507812c-1.8260803,1.5667725,0.3712463,4.2711792,2.2285156,2.8166046l27.2377625-21.550766C454.723053,211.9118042,452.4670105,209.361496,450.6427612,210.7518005z M453.8896484,225.5492554l-23.0473633,12.5712891c-2.0585327,1.1234894-0.3374634,4.2768402,1.7210693,3.1533356l23.0473633-12.5712891C457.6748962,227.5759583,455.9538269,224.4226074,453.8896484,225.5492554z M453.8884583,274.6798096L427.8479309,258.81604c-2.0961609-1.1498108-3.8458557,1.7504883-1.8683777,3.0679932l26.0405273,15.8637695C454.0668945,278.8876038,455.8861389,276.0508423,453.8884583,274.6798096z M444.1548462,283.1577148l-22.7480469-17.0610352c-1.9653015-1.3937988-4.009552,1.4312744-2.1560059,2.8739014l22.7480469,17.0610352C443.9595337,287.385376,445.9966431,284.6938171,444.1548462,283.1577148z M489.1247864,239.5101471c7.5296631-17.4702606,4.8872681-36.7966309-8.0780334-59.08284c-1.1773987-2.0240326-4.2828064-0.2176208-3.1054077,1.806427c12.3526306,21.2327576,14.9319153,39.5033264,7.8839417,55.85466C484.8927002,240.2527008,488.1921997,241.6744537,489.1247864,239.5101471z M510.8193665,222.3526459c-1.0581055-22.5539551-5.8670654-40.0604553-14.2923584-52.0331116c-1.3658142-1.9405518-4.3028564,0.1266022-2.9370422,2.0671539c8.0254211,11.4055939,12.6157227,28.2731171,13.6423035,50.1343231C507.3419189,224.8578491,510.9290161,224.6894836,510.8193665,222.3526459z M483.8937683,327.4015808c7.7939148-15.5889893,12.3257446-40.9455261,4.8790894-62.4518738c-0.7812805-2.2536926-4.1743164-1.0774841-3.3930359,1.1762085c7.1040955,20.5183716,2.7593384,44.7536316-4.6990356,59.6691895C479.6217957,327.9131165,482.8347473,329.5195923,483.8937683,327.4015808z M507.550293,330.7174377c5.9453735-19.3690186,5.9325562-37.2145996-0.0362549-53.0421143c-0.8625488-2.2868652-4.2228394-1.0194702-3.3602905,1.267395c5.6811523,15.0652161,5.6694641,32.1297607-0.0362549,50.7201233C503.4382935,331.8735657,506.8710938,332.9281921,507.550293,330.7174377z M56.99963,279.7401428c-14.8213997,2.4345703-21.8511467,9.8314514-16.854084,16.669342c3.1469154,4.0957336,41.2431107,53.2385559,78.78685,81.3965149c4.4548187,3.3410645,14.0681686,5.5478821,26.4477005,6.9284973l19.8048706,28.3966675c0.7818909,1.0319214,2.0396271,1.0190735,2.8499298,0.1251221l7.5592041-9.0241394c10.2963867,9.8162231,18.1312103,1.0212402,23.3944702-17.5906982c36.1539459-0.9407349,72.8767853-2.0726013,92.3459015-8.3908691c8.9197083,11.3414917,19.765686,12.2017212,31.088623,6.0924377c19.7455444-10.9051819,52.8924866-47.8684082,55.3852234-65.3737488c-0.0456543-2.534668,0.6985474-1.9233398-14.1356812-3.0674744c14.4525452-26.8173828,10.3977966-45.3249207,36.3716125-43.0038452l58.9372864,49.0270691c2.2938232,1.9037476,5.7701721,1.3259583,7.2127991-1.2919617c9.4857788-16.4764404,14.1976624-41.7593079-0.0187073-64.5149536c12.1188049-19.6665955,12.3736877-42.5333252,0.8067627-69.785141c-0.8161011-1.9262695-2.7967529-3.0954742-4.869751-2.8961182c-4.3692932-1.7072296-54.0558167,48.977005-66.7194824,48.8008423c-2.6499329-0.7471924-11.8628235-6.8130341-19.9510803-12.2002106c3.9495239-0.9971161,13.8962708-4.469986,11.7046814-7.8545685c-23.6962585-31.7246094-51.2578735-45.661911-83.4320374-42.6138l-26.9308472,19.9828949c-48.9155121,1.9552765-110.3751373-1.8360596-170.1908264,26.8453064c-14.7957535-6.5833588-24.7586517-1.0910492-30.35569,15.3101501c-16.9403877,9.517395-30.1506424,18.6681061-36.6734924,24.4235229C31.6064548,266.0821228,52.2801514,276.536438,56.99963,279.7401428z M359.4133606,209.4581451c4.0035095,2.5800781,8.0184326,5.2419128,11.910553,7.8347626c5.2702637-1.0354004,9.1549377-2.4593353,11.8872986-4.3605347c-2.8880005-3.7834778-5.8280334-7.2915344-8.8211975-10.5347595L359.4133606,209.4581451z M341.74646,198.8247375c4.458252,2.4104004,9.2336731,5.2843781,14.086731,8.3499603l15.9458313-7.5174103c-3.8723145-3.9529266-7.8804321-7.4206848-11.9391174-10.4961243L341.74646,198.8247375z M322.354187,192.7276306c13.9305725,2.4019165,9.055481,1.229126,15.5195923,4.0933075l18.7957764-10.0327148c-4.4872742-3.1077423-9.0986023-5.6664124-13.8279724-7.7376556C342.5030212,179.7247772,335.6574707,183.8095703,322.354187,192.7276306z M300.8213196,190.5177612c6.325531,0.4326782,11.6837769,0.9578705,16.0984802,1.4898682l22.0490723-14.5296326c-2.4151917-0.9019012-4.8578186-1.6121521-7.3386536-2.2535248L300.8213196,190.5177612z M282.6444397,189.6728668c3.9013977,0.1026764,7.5510864,0.2465515,10.9758911,0.418869l32.4078674-16.1443787c-6.7740173-1.1991577-13.7846985-1.5000153-21.0683289-0.8521271L282.6444397,189.6728668z M106.5738983,241.4716644c4.9660797,8.2767944,2.0031052,27.8495331-19.2562103,29.7998505c1.7673264,4.9482727,4.0402603,8.6808167,6.8269882,11.1390686c3.6794891,3.2445679,8.3358459,4.4301147,14.6647491,3.7274475c13.0272751-1.4474792,18.4880447-17.9262695,18.0770721-28.6075134c-0.4343567-11.2968597-7.4913864-25.8081512-22.049736-32.6462555c-14.2525864-7.2959442-17.4226151,0.5205994-21.3796387,11.8021088C89.0629349,230.8099976,98.6261215,228.2253571,106.5738983,241.4716644z M82.9211197,243.3222656c0.1730423,4.5238647,0.5076523,8.6757812,0.9855652,12.492218C97.1419296,251.8943634,88.8358994,238.6121979,82.9211197,243.3222656z M174.2416229,390.6485291l-4.4363098-4.264801l-7.3183594-0.3143921l7.3303986,8.5521545c1.4766846,1.9210205-1.1273956,4.0843811-2.726593,2.3384094l-9.5817719-11.1786804c-2.5468903-0.1655273-5.0247345-0.3555298-7.4189606-0.5725403l16.6985016,23.9425354l16.6465454-19.8729858l-3.1531982-2.6465759c-1.7210693-0.0250549-3.4336548-0.0561218-5.1308289-0.0961609l1.583313,1.5267639C178.3832245,389.9265442,175.915451,392.1909485,174.2416229,390.6485291z M187.3408051,390.2089233l-9.4384766,11.2676086c8.1259155,8.3865356,12.7759705-1.0713501,17.3284149-14.797821c-3.3924408,0.0201416-6.5618286,0.0273743-9.2937927,0.0094299C187.2373657,387.6801758,188.4642029,388.6480103,187.3408051,390.2089233z M327.2543335,376.9795837c-6.0491333-1.1931763-18.2961731-4.3858948-18.265686-5.4927673c-4.4745483,2.1408081-9.130249,4.0133667-13.9682617,5.6085815C304.4293213,387.8936157,315.3574524,385.9152527,327.2543335,376.9795837z M331.4119568,373.8190918c3.8200684-3.0555115,7.7539368-6.5909729,11.6221619-10.4102478c-5.4039612-1.2741394-9.6928406-4.4464111-11.6765442-6.126709c-5.6880188,4.664917-11.8066101,8.7209473-18.3361816,12.1730347C319.9939575,371.624176,326.894165,373.7317505,331.4119568,373.8190918z M357.369812,347.592804l-12.606781-3.3301086c-3.3423157,3.8231506-6.8820801,7.3759155-10.6181335,10.652832c2.2053223,1.7741089,6.723877,4.8506775,11.9782715,5.3641052C350.0682068,356.1982117,353.8829041,351.8929138,357.369812,347.592804z M369.5144958,330.2285156l-13.677948-0.6955566c-2.5284729,3.9043579-5.3419495,7.8269043-8.5058899,11.6932983l12.4743347,3.295105C363.6670227,339.5365295,367.0072937,334.6502075,369.5144958,330.2285156z M361.8622742,319.3575439c-1.1894531,2.2052612-2.4708252,4.4412231-3.8360901,6.6903992l13.3465576,0.6786499c1.1414185-2.3308105,1.9992676-4.4860229,2.4942017-6.3846741L361.8622742,319.3575439z M74.5487366,243.6452484c-3.2414017,1.9137726-6.2947769,3.7909241-9.1481552,5.6079407c7.1724625,13.2419586-1.6573677,17.2328339-5.382576,3.5160217c-4.9471245,3.3199615-9.0623589,6.3419037-12.1311531,8.8587799c7.5001144,7.3197327,14.0143394,7.3197327,22.3066673,17.65271c8.4564209,7.665741,19.101738,19.4551392,22.5866928,27.8164673c1.2091141,2.9008179-3.211647,4.7434692-4.4207611,1.8426819c-2.5843811-6.2010193-10.1716385-15.1555176-17.2854462-22.20224c-1.4955215-0.1602783-9.5224876-0.7437439-22.0039215,5.539917c7.5045433,9.5500488,42.3918533,52.9532471,75.6089554,77.865509c13.0866928,8.7722168,86.5772629,7.9880066,142.0285339,3.3182068c68.393219-7.7904053,88.6099243-59.756897,98.3260193-84.7299194c5.79245-20.4831238,20.9161377-27.8873596,38.9769287-24.9899292l56.4921265,46.9908447c6.4645386-14.4349976,8.3095398-34.2740784-3.9764709-51.845459c-1.1411438-1.6316223-1.152832-3.7993317-0.0303955-5.4438171c10.9881897-16.0987701,12.2579346-35.0913391,3.8338318-57.9194641c-25.1846619,21.4256744-50.9216919,45.9883881-65.1714783,46.2999115c-6.3309631,1.4916687-57.5180664-37.8822327-67.0458374-38.4004059c-1.4759827,19.0798798-12.2449341,25.3990784-12.2449341,25.3990784c-5.7318115-3.8211823-12.7289734-21.6044159-15.3251343-28.6412811c-7.2463684-0.5007782-15.8486328-0.8828278-25.8660889-1.0028076c-9.9918823,14.9276733,6.3208618,22.5602417-16.6765747,36.2289734c-8.9940338-4.9185486-17.4026642-24.5235596-19.9977112-35.5539856c-6.1813049,0.28302-12.6885071,0.6577606-19.5354462,1.1417999c-6.9702454,8.6382751,3.0348206,23.645874-16.3392639,39.0017548c-5.3876953,2.9931488-8.3003693-25.0085297-18.4771271-35.7839203c-3.576767,0.3516693-6.8727112,0.6912231-10.2394867,1.197525c-1.0800476,17.2036743-6.5718079,31.3808746-8.6171875,36.1420898c7.5209808,17.4359894-2.8231964,59.311264-22.507843,72.8770294l-2.7172394-3.9425659c20.5049286-14.6676636,26.2832184-58.4402313,21.2532196-66.698822c-10.5361786-17.2990112-10.5048523-19.3698578-28.7345123-27.4810333c-5.2087326,1.8833618-10.3362122,3.923996-15.3610153,6.0530396C176.7972717,276.5329895,76.9164047,344.3855591,74.5487366,243.6452484z M72.0598221,113.401268c0-7.1567535-7.8008194-11.654007-14.0077667-8.0756302s-6.2069473,12.5728836,0,16.1512604C64.2590103,125.055275,72.0598221,120.5580215,72.0598221,113.401268z M55.0521393,126.6575699c-10.1888275-5.87397-10.1888313-20.6386337-0.0000038-26.5126038c10.1888237-5.8739777,22.9940071,1.5083542,22.9940071,13.2563019S65.2409668,132.5315399,55.0521393,126.6575699z M65.1049042,176.8551483c0-3.9649658-4.3217773-6.4565125-7.7605247-4.4740295c-3.4387474,1.9824677-3.4387474,6.9655762,0,8.9480438C60.7831306,183.3116455,65.1049042,180.8200989,65.1049042,176.8551483z M54.3444595,186.5098419c-7.4206238-4.2780762-7.4206276-15.0313263,0-19.3094025s16.7467728,1.0985565,16.7467728,9.6547089C71.0912323,185.4112854,61.7650871,190.7879181,54.3444595,186.5098419z M36.5573044,158.3537903c0-10.3457947-11.2768497-16.8470154-20.2496109-11.674118s-8.9727592,18.175354,0.0000019,23.3482513S36.5573044,168.6996002,36.5573044,158.3537903z M11.5078259,178.3170013c-15.3437653-8.8458557-15.3437691-31.0805511-0.0000057-39.9264069s34.6276093,2.2714996,34.6276093,19.9632111S26.8515892,187.1628418,11.5078259,178.3170013z"/>
</svg>

<svg xmlns="http://www.w3.org/2000/svg" viewBox="0 0 512 512"><path fill="#aed581" d="M94.38 193.573c-3.746.53-5.005-5.056-.876-5.922 16.509-1.793 24.29 4.717 24.705 13.434.192 3.639-5.447 4.585-5.977.332-.087-7.89-10.9-8.712-17.851-7.844m14.313 145.315-39.844-36.8c-2.496-2.12-5.49 1.375-3.25 3.516l39.845 36.8c2.355 2.066 5.481-1.131 3.25-3.516m106.491-20.371-31.847-18.199c9.615-8.35 12.721-15.54.33-29.623l34.225-22.511c2.567 9.198 6.286 18.436 10.058 25.313 4.366 25.096-1.279 40.58-12.766 45.02m-11.458-19.222-9.157-4.71q-1.262 2.417-3.323 4.737l24.107 13.776c13.1-7.58 8.637-34.66 8.035-37.975-4.054-7.612-6.85-15.286-8.224-19.413l-24.46 16.089a42 42 0 0 1 1.747 2.565l17.196-9.524c2.73-1.408 5.083 2.485 2.32 4.19l-17.25 9.555c.67 1.531 1.168 3.037 1.47 4.513h14.321c3.093 0 3.093 4.79 0 4.79h-13.99a16 16 0 0 1-.31 2.156l9.708 4.993c2.89 1.632.491 5.608-2.19 4.258m-35.852 58.436c-2.458 1.679-.276 5.632 2.657 3.984 8.45-5.633 4.275-14.445 2.033-19.18-1.024-2.03.76-4.115 5.121-6.247 2.784 3.191 3.892 5.93 1.825 8.896-1.712 2.611 1.957 5.291 3.929 2.738 7.813-11.546-10.925-20.937-11.247-24.586-.022-3.214-4.526-3.431-4.782-.263-.425 3.166 3.695 6.77 6.754 9.622-16.186 9.468 3.719 17.55-6.29 25.036m67.606-94.817c8.905 12.822 10.3 25.768 4.262 39.579-1.145 2.812 2.92 4.851 4.388 1.917 6.665-15.245 5.078-30.127-4.717-44.229-2.038-2.586-5.653.204-3.933 2.733m25.995 77.94c3.944-4.996 1.631-10.595-.238-13.649 8.037-5.794 5.81-14.276-.226-21.235-2.43-2.232-5.53 1.113-3.433 3.34 9.006 10.889 1.09 14.077-3.562 16.473 4.327 4.455 6.074 8.923 3.7 12.103-1.864 2.606 1.65 5.348 3.76 2.967m7.035-9.143c5.958-4.512 5.903-7.609 3.03-16.767-.759-3.208-5.205-2.203-4.724.788 1.123 6.315 4.116 8.223-1.168 12.14-2.386 1.814.034 5.567 2.862 3.84m29.367-84.758c8.113-12.195-1.216-15.337-2.492-19.086-.553-3.253-5.011-2.575-4.768.44.906 6.501 9.985 6.501 3.331 15.907-1.727 2.475 1.907 5.374 3.929 2.739m-3.486 22.619c5.832-6.24 6.398-13.058 1.637-19.717-2.114-2.577-5.65.358-3.895 2.785 3.456 4.834 3.073 9.047-1.24 13.66-2.033 2.232 1.071 5.511 3.498 3.272m11.91-32.409c-2.328-2.457-5.572.633-3.723 3.011 3.337 4.2 3.935 7.497-.21 10.754-2.36 2.006.357 5.664 2.995 3.736 6.164-4.902 5.995-11.361.938-17.501m11.757 33.671c-.052-2.503-3.405-2.48-3.584-.215.18 6.088 6.415 9.671-.128 15.068-1.753 1.47.265 4.249 2.245 2.803 2.49-1.99 3.699-3.995 4.155-5.91 3.989 3.044 6.514 4.372 4.189 11.486-.696 2.24 2.629 3.367 3.416 1.111 5.176-14.573-7.695-11.48-10.293-24.343m-2.782 20.363c-2.14-.938-3.665 2.154-1.51 3.258 5.73 2.636 4.234 5.63-1.549 11.604-1.69 1.654.79 4.19 2.512 2.567 6.676-6.147 9.631-13.144.547-17.429m117.146-44.607-23.945 2.395c-2.222.11-2.045 3.692.176 3.583l24.127-2.403c2.364-.237 2.006-3.811-.358-3.575m18.22-35.838-27.237 21.55c-1.826 1.567.371 4.272 2.228 2.817l27.238-21.55c1.852-1.657-.404-4.208-2.228-2.817m3.248 14.797-23.048 12.572c-2.058 1.123-.337 4.276 1.721 3.153l23.048-12.571c2.064-1.127.343-4.28-1.721-3.154m-.002 49.13-26.04-15.863c-2.096-1.15-3.846 1.75-1.868 3.068l26.04 15.864c2.047 1.14 3.866-1.697 1.868-3.068m-9.733 8.479-22.748-17.061c-1.966-1.394-4.01 1.431-2.156 2.874l22.748 17.06c1.96 1.354 3.998-1.337 2.156-2.873m44.97-43.648c7.53-17.47 4.887-36.796-8.078-59.083-1.178-2.024-4.283-.217-3.106 1.807 12.353 21.232 14.932 39.503 7.884 55.854-.932 2.165 2.367 3.586 3.3 1.422m21.694-17.157c-1.058-22.554-5.867-40.06-14.292-52.033-1.366-1.941-4.303.126-2.937 2.067 8.025 11.405 12.616 28.273 13.642 50.134.11 2.337 3.697 2.168 3.587-.168m-26.925 105.049c7.794-15.59 12.326-40.946 4.879-62.452-.781-2.254-4.174-1.078-3.393 1.176 7.104 20.518 2.76 44.754-4.7 59.67-1.058 2.117 2.155 3.724 3.214 1.606m23.656 3.315c5.946-19.369 5.933-37.214-.036-53.042-.863-2.287-4.223-1.02-3.36 1.268 5.68 15.065 5.67 32.13-.037 50.72-.679 2.21 2.754 3.265 3.433 1.054M57 279.74c-14.822 2.435-21.852 9.832-16.854 16.67 3.146 4.095 41.243 53.238 78.786 81.396 4.455 3.341 14.069 5.548 26.448 6.928l19.805 28.397c.782 1.032 2.04 1.02 2.85.125l7.56-9.024c10.295 9.816 18.13 1.021 23.394-17.59 36.154-.941 72.876-2.073 92.345-8.391 8.92 11.341 19.766 12.201 31.09 6.092 19.745-10.905 52.892-47.868 55.384-65.374-.045-2.534.699-1.923-14.135-3.067 14.452-26.818 10.397-45.325 36.371-43.004l58.938 49.027c2.293 1.904 5.77 1.326 7.212-1.292 9.486-16.476 14.198-41.76-.018-64.515 12.118-19.666 12.373-42.533.806-69.785a4.8 4.8 0 0 0-4.87-2.896c-4.369-1.707-54.055 48.977-66.719 48.8-2.65-.747-11.863-6.812-19.95-12.2 3.949-.997 13.895-4.47 11.704-7.854-23.696-31.725-51.258-45.662-83.432-42.614l-26.931 19.983c-48.916 1.955-110.375-1.836-170.191 26.845-14.796-6.583-24.759-1.09-30.356 15.31-16.94 9.518-30.15 18.669-36.673 24.424-7.958 9.951 12.716 20.405 17.436 23.61m302.413-70.282a942 942 0 0 1 11.91 7.835c5.271-1.035 9.156-2.46 11.888-4.36a147 147 0 0 0-8.821-10.535zm-17.667-10.633c4.459 2.41 9.234 5.284 14.087 8.35l15.946-7.518a108 108 0 0 0-11.94-10.496zm-19.392-6.097c13.93 2.402 9.056 1.229 15.52 4.093l18.796-10.033a82 82 0 0 0-13.828-7.737c-.339.674-7.185 4.759-20.488 13.677m-21.533-2.21c6.326.432 11.684.958 16.099 1.49l22.049-14.53c-2.415-.902-4.858-1.612-7.339-2.254zm-18.177-.845c3.902.103 7.552.246 10.976.419l32.408-16.145c-6.774-1.199-13.785-1.5-21.068-.852zm-176.07 51.799c4.966 8.276 2.003 27.85-19.256 29.8 1.767 4.948 4.04 8.68 6.827 11.139 3.68 3.244 8.336 4.43 14.664 3.727 13.028-1.447 18.488-17.926 18.077-28.607-.434-11.297-7.49-25.809-22.05-32.647-14.252-7.296-17.422.52-21.379 11.802 5.606-5.876 15.17-8.46 23.117 4.786m-23.653 1.85c.173 4.524.508 8.676.986 12.492 13.235-3.92 4.929-17.202-.986-12.492m91.32 147.327-4.436-4.265-7.318-.315 7.33 8.552c1.477 1.922-1.127 4.085-2.726 2.339l-9.582-11.179a293 293 0 0 1-7.419-.572l16.699 23.942 16.646-19.873-3.153-2.646a569 569 0 0 1-5.131-.097l1.583 1.527c1.65 1.865-.819 4.129-2.492 2.587m13.1-.44-9.439 11.268c8.126 8.386 12.776-1.072 17.329-14.798-3.393.02-6.562.027-9.294.01 1.3.991 2.527 1.959 1.404 3.52m139.913-13.23c-6.049-1.193-18.296-4.385-18.265-5.492a118 118 0 0 1-13.969 5.608c9.41 10.799 20.337 8.82 32.234-.115m4.158-3.16c3.82-3.055 7.754-6.59 11.622-10.41-5.404-1.274-9.693-4.447-11.676-6.127a109.7 109.7 0 0 1-18.337 12.173c6.973 2.17 13.873 4.277 18.391 4.364m25.958-26.226-12.607-3.33a114 114 0 0 1-10.618 10.653c2.205 1.774 6.724 4.85 11.978 5.364a197 197 0 0 0 11.247-12.687m12.144-17.364-13.677-.696a130 130 0 0 1-8.506 11.693l12.474 3.295c3.862-4.984 7.202-9.87 9.71-14.292m-7.652-10.871a152 152 0 0 1-3.836 6.69l13.347.679c1.141-2.331 1.999-4.486 2.494-6.385zM74.55 243.645a319 319 0 0 0-9.148 5.608c7.172 13.242-1.658 17.233-5.383 3.516-4.947 3.32-9.062 6.342-12.131 8.859 7.5 7.32 14.014 7.32 22.307 17.653 8.456 7.665 19.101 19.455 22.586 27.816 1.21 2.901-3.211 4.744-4.42 1.843-2.585-6.201-10.172-15.156-17.286-22.202-1.496-.16-9.522-.744-22.004 5.54 7.505 9.55 42.392 52.953 75.609 77.865 13.087 8.772 86.577 7.988 142.029 3.318 68.393-7.79 88.61-59.757 98.326-84.73 5.792-20.483 20.916-27.887 38.977-24.99l56.492 46.991c6.464-14.435 8.31-34.274-3.977-51.845a4.79 4.79 0 0 1-.03-5.444c10.988-16.099 12.258-35.091 3.834-57.92-25.185 21.426-50.922 45.989-65.172 46.3-6.33 1.492-57.518-37.882-67.046-38.4-1.476 19.08-12.245 25.4-12.245 25.4-5.731-3.822-12.729-21.605-15.325-28.642-7.246-.501-15.848-.883-25.866-1.003-9.992 14.928 6.321 22.56-16.676 36.229-8.994-4.919-17.403-24.524-19.998-35.554-6.181.283-12.689.658-19.536 1.142-6.97 8.638 3.035 23.646-16.339 39.002-5.388 2.993-8.3-25.009-18.477-35.784-3.577.351-6.873.69-10.24 1.197-1.08 17.204-6.571 31.381-8.617 36.142 7.521 17.436-2.823 59.311-22.508 72.877l-2.717-3.942c20.505-14.668 26.283-58.44 21.253-66.7-10.536-17.298-10.504-19.369-28.734-27.48a307 307 0 0 0-15.361 6.053c60.071 54.173-39.81 122.026-42.177 21.285m-2.49-130.244c0-7.156-7.8-11.654-14.007-8.075s-6.207 12.573 0 16.15c6.207 3.58 14.008-.918 14.008-8.075m-17.007 13.257c-10.189-5.874-10.189-20.64 0-26.513s22.994 1.508 22.994 13.256-12.805 19.13-22.994 13.257m10.053 50.197c0-3.965-4.322-6.456-7.76-4.474-3.44 1.983-3.44 6.966 0 8.948 3.438 1.983 7.76-.509 7.76-4.474m-10.76 9.655c-7.421-4.278-7.421-15.031 0-19.31s16.746 1.099 16.746 9.655-9.326 13.933-16.747 9.655m-17.788-28.156c0-10.346-11.277-16.847-20.25-11.674s-8.972 18.175 0 23.348 20.25-1.328 20.25-11.674m-25.05 19.963c-15.343-8.846-15.343-31.08 0-39.926s34.628 2.271 34.628 19.963-19.283 28.809-34.627 19.963" data-iconColor="GDB"/></svg>
